/* XPM */
static char * floor_xpm[] = {
"64 64 2 1",
" 	c #FFFF00",
".	c #000000",
"................................................................",
" ...............................................................  ",
"................................................................",
" ...............................................................  ",
"................................................................",
" ...............................................................  ",
"................................................................",
" ...............................................................  ",
"................................................................",
" ...............................................................  ",
"................................................................",
" ...............................................................  ",
"................................................................",
" ...............................................................  ",
"................................................................",
" ...............................................................  ",
"................................................................",
" ...............................................................  ",
"................................................................",
" ...............................................................  ",
"................................................................",
" ...............................................................  ",
"................................................................",
" ...............................................................  ",
"................................................................",
" ...............................................................  ",
"................................................................",
" ...............................................................  ",
"................................................................",
" ...............................................................  ",
"................................................................",
" ...............................................................  ",
"................................................................",
" ...............................................................  ",
"................................................................",
" ...............................................................  ",
"................................................................",
" ...............................................................  ",
"................................................................",
" ...............................................................  ",
"................................................................",
" ...............................................................  ",
"................................................................",
" ...............................................................  ",
"................................................................",
" ...............................................................  ",
"................................................................",
" ...............................................................  ",
"................................................................",
" ...............................................................  ",
"................................................................",
" ...............................................................  ",
"................................................................",
" ...............................................................  ",
"................................................................",
" ...............................................................  ",
"................................................................",
" ...............................................................  ",
"................................................................",
" ...............................................................  ",
"................................................................",
" ...............................................................  ",
"................................................................",
" ...............................................................  ",
"................................................................",
" ...............................................................  "};